X:1
T:39
T:39
T:Études enfantines op. 37
T:Henry Lemoine
C:Henry Lemoine
%%score { 1 | ( 2 3 ) }
L:1/8
Q:1/4=125
M:2/4
K:E
V:1 treble nm="Piano" snm="Pno."
V:2 bass 
V:3 bass 
V:1
"^Andantino"!p!"_legato e con grazia" !1!B/!5!e/d/!5!e/ !3!B/!2!G/E/!3!G/ | !5!B2- B/A/F/G/ | %2
!<(! !1!E/F/G/!1!A/ B/c/d/!1!e/!<)! |!mf! !2!^e/!>(!f/a/g/ f/!1!=e/!3!d/!>)!c/ | %4
!p! !1!B/!5!e/d/!5!e/ !3!B/!2!G/E/!3!G/ | B2- B/A/F/G/ | %6
!<(! !1!E/F/G/!1!A/"_ritardando" !2!^A/!1!B/c/!1!d/!<)! |!mf! (!>!!2!d2 .e) z!fine! |] %8
!mf!"^in tempo" (!4!e/d/c/B/ !2!^A/B/c/A/ | !1!B/c/d/!1!e/!<(! f/g/^a/b/)!<)! | %10
 (!4!^a/!<(!!2!f/!1!e/!3!c/ !2!^A/c/!5!f/f/)!<)! |!f!!>(! (!4!f2 .d) z!>)! | %12
!mf! (!4!e/d/c/B/ !2!^A/B/c/A/ | !1!B/c/d/!1!e/!<(! f/g/^a/b/!<)! | %14
!f! (!3!^a/)!5!c'/a/!>(!!2!f/ !1!e/!3!c/^A/!5!f/!>)! |!p!!<(! !1!B4-) | %16
 (B/!<)!!mp!!4!=c/B/^A/!>(! !1!B/d/e/=g/!>)! | .f)!<(! !^!B3-!<)! | %18
"_cresc." (B/!4!=c/B/^A/ !1!B/d/e/=g/ | .f)!mf! !^!B3- |!<(! (B/^c/d/!1!e/ f/g/^a/!1!b/!<)! | %21
!f!!>(! !3!=c')(e'/c'/ !1!=g/!3!e/!2!=c/!>)!!1!B/ |!p! (.!2!^A)"_rallentando".!3!B .^c)(!>!A | %23
 .B) z"^in tempo"!p! .!2!B.B |!<(! !1!B/!3!c/!2!B/!3!c/ B/!3!c/!2!B/!3!c/ | %25
 !1!B/!3!d/f/!3!d/!<)!!mf! .B!^!!2!B- |!<(! B/!3!c/!2!B/!3!c/ !1!B/!3!c/!2!B/c/!<)! | %27
!f! !1!B/d/f/d/ .B!^!!2!B- |"_poco a poco" B/!3!c/!2!B/!3!c/ !1!B/!3!c/"_dim."!2!B/c/ | %29
"^simile""_e rallentando" B/c/B/c/ B/c/B/c/ | B/c/B/c/ B/c/B/c/ |!pp! B/c/B/c/ B/c/B/c/!D.C.! |] %32
V:2
 z B, B,2 | z B, B,2 | z B, B,2 | z B, B,2 | z B, B,2 | z B, B,2 | ([E,G,]B, F,A,) | %7
 (!>!!5!!2!!1![B,,F,A,]2 .!3!!5![E,G,]) z |] z !2!!1![CE] [CE]2 | z !2!!1![B,D] [B,D]2 | %10
 z !2!!1![CE] [CE]2 | z !2!!1![B,D] [B,D][B,D] | z !2!!1![CE] [CE]2 | z !2!!1![B,D] [B,D]2 | %14
 z !2!!1![CE] [CE]2 |[K:treble] z !3!!1![DF] [DF][DF] | [B,E=G]4 | z !3!!1![DF] [DF][DF] | %18
 [B,E=G]4 | z !3!!1![DF] [DF][DF] | [DF]4 | !^![E=G]4- | %22
 [EG](.!4!!2![DF] .!3!!1![E^G])[K:bass](!>!!5!!2!!1![F,CE] | .[B,D]) z z2 | %24
[K:treble] (!3!!1![B,D]2 !4!!2![CE]2 | !3!!5![DF]4) | (!3!!1![DF]2 !4!!2![EG]2 | !3!!5![F=A]4) | %28
 !3!!1![FA] z !4!!2![EG] z | !5!!3![DF] z !3!!1![CE] z |[K:bass] !4!!2![B,D] z !5!!3![A,C] z | %31
 !3!!1![G,B,] z !4!!2![F,A,] z |] %32
V:3
 !5!!3![E,G,]4 | !5!!2![D,A,]4 | !5!!3![E,G,]4 | !5!!2![D,A,]4 | !5!!3![E,G,]4 | !5!!2![D,A,]4 | %6
 x2 B,,2 | x4 |] !5!F,4 | !5!F,4 | !5!F,4 | !5!F,4 | !5!F,4 | !5!F,4 | !5!F,4 |[K:treble] !5!B,4 | %16
 x4 | !5!B,4 | x4 | !5!B,4 | x4 | x4 | x3[K:bass] x | x4 |[K:treble] x4 | x4 | x4 | x4 | x4 | x4 | %30
[K:bass] x4 | x4 |] %32

